packages/kaspersky-hexa-ui-icons/src/iconsSVGs/24/StatusSearchOutline.svg

<svg xmlns="http://www.w3.org/2000/svg" width="24" height="24" fill="none" viewBox="0 0 24 24"><path fill="#000" fill-rule="evenodd" d="M12 22c5.5228 0 10-4.4772 10-10S17.5228 2 12 2 2 6.4772 2 12s4.4772 10 10 10m6.3199-5.0944C19.3729 15.551 20 13.8487 20 12c0-4.4183-3.5817-8-8-8s-8 3.5817-8 8 3.5817 8 8 8c1.8487 0 3.551-.6271 4.9056-1.6801l-2.1482-2.1483C13.967 16.6951 13.0191 17 12 17c-2.7614 0-5-2.2386-5-5s2.2386-5 5-5 5 2.2386 5 5c0 1.0191-.3049 1.967-.8284 2.7574zM12 9c-1.6569 0-3 1.3431-3 3s1.3431 3 3 3 3-1.3431 3-3-1.3431-3-3-3"/></svg>

<svg width="24" height="24" viewBox="0 0 24 24" fill="none" xmlns="http://www.w3.org/2000/svg">
<path fill-rule="evenodd" clip-rule="evenodd" d="M12 22C17.5228 22 22 17.5228 22 12C22 6.47715 17.5228 2 12 2C6.47715 2 2 6.47715 2 12C2 17.5228 6.47715 22 12 22ZM18.3199 16.9056C19.3729 15.551 20 13.8487 20 12C20 7.58172 16.4183 4 12 4C7.58172 4 4 7.58172 4 12C4 16.4183 7.58172 20 12 20C13.8487 20 15.551 19.3729 16.9056 18.3199L14.7574 16.1716C13.967 16.6951 13.0191 17 12 17C9.23858 17 7 14.7614 7 12C7 9.23858 9.23858 7 12 7C14.7614 7 17 9.23858 17 12C17 13.0191 16.6951 13.967 16.1716 14.7574L18.3199 16.9056ZM12 9C10.3431 9 9 10.3431 9 12C9 13.6569 10.3431 15 12 15C13.6569 15 15 13.6569 15 12C15 10.3431 13.6569 9 12 9Z" fill="black"/>
</svg>
